icons/1_Primary/Fedora.svg

<svg width="1024" height="1024" viewBox="0 0 1024 1024" fill="none" xmlns="http://www.w3.org/2000/svg">
<g clip-path="url(#clip0_2_2181)">
<path d="M512 1024C794.77 1024 1024 794.77 1024 512C1024 229.23 794.77 0 512 0C229.23 0 0 229.23 0 512C0 794.77 229.23 1024 512 1024Z" fill="#9ABEFF"/>
<path d="M523.91 242.26L524.15 242.02C376.15 242.02 256.32 359.65 256.06 504.88V708.359C256.13 741.299 283.37 767.969 316.96 767.969H524.17C672.2 767.879 792 650.26 792 505.12C792 359.98 672 242.26 523.91 242.26ZM665.4 444.26C665.066 447.232 664.136 450.107 662.667 452.713C661.198 455.319 659.22 457.603 656.85 459.428C654.479 461.253 651.766 462.583 648.871 463.337C645.977 464.092 642.96 464.256 640 463.82C637.043 463.434 634.196 462.451 631.63 460.931C629.065 459.411 626.835 457.385 625.077 454.977C623.319 452.569 622.068 449.828 621.402 446.921C620.735 444.015 620.667 441.003 621.2 438.07C621.459 435.619 621.556 433.153 621.49 430.69C621.49 404.25 599.43 394.04 578.58 394.04C557.73 394.04 539 411.23 538.93 430.69C539.29 453.19 538.93 475.51 538.93 497.97L577.63 497.69C607.84 497.08 608.18 541.69 577.98 541.49L538.98 541.77C538.88 559.87 539.12 556.59 538.98 565.71C538.98 565.71 539.31 587.84 538.63 604.62C533.96 653.889 491.19 693.27 439.8 693.27C385.32 693.27 340.44 649.6 340.44 596.03C342.08 540.95 386.86 497.619 443.28 498.109L474.75 497.88V541.599L443.28 541.88H443.11C412.11 542.78 385.54 563.43 385.04 596C385.04 625.66 409.48 649.44 439.81 649.44C470.14 649.44 494.35 627.82 494.35 596.06V430.47C494.35 427.494 494.503 424.52 494.81 421.56C499.92 381.06 536.81 350.19 578.67 350.19V350.27C623.67 350.27 666.17 384.07 666.17 430.7C666.259 435.229 666.002 439.759 665.4 444.25V444.26Z" fill="white"/>
</g>
<defs>
<clipPath id="clip0_2_2181">
<rect width="1024" height="1024" fill="white"/>
</clipPath>
</defs>
</svg>

<svg xmlns="http://www.w3.org/2000/svg" viewBox="0 0 1024 1024">
   <circle cx="512" cy="512" r="512" style="fill:#51a2da"/>
   <path d="m523.91 242.26.24-.24c-148 0-267.83 117.63-268.09 262.86v203.48c.07 32.94 27.31 59.61 60.9 59.61h207.21C672.2 767.88 792 650.26 792 505.12S672 242.26 523.91 242.26Zm141.49 202a22.29 22.29 0 0 1-25.4 19.56 22 22 0 0 1-18.8-25.75 55.88 55.88 0 0 0 .29-7.38c0-26.44-22.06-36.65-42.91-36.65s-39.58 17.19-39.65 36.65c.36 22.5 0 44.82 0 67.28l38.7-.28c30.21-.61 30.55 44 .35 43.8l-39 .28c-.1 18.1.14 14.82 0 23.94 0 0 .33 22.13-.35 38.91-4.67 49.27-47.44 88.65-98.83 88.65-54.48 0-99.36-43.67-99.36-97.24 1.64-55.08 46.42-98.41 102.84-97.92l31.47-.23v43.72l-31.47.28h-.17c-31 .9-57.57 21.55-58.07 54.12 0 29.66 24.44 53.44 54.77 53.44s54.54-21.62 54.54-53.38V430.47a86.43 86.43 0 0 1 .46-8.91c5.11-40.5 42-71.37 83.86-71.37v.08c45 0 87.5 33.8 87.5 80.43a88.78 88.78 0 0 1-.77 13.55Z" style="fill:#fff"/>
</svg>
